static/assets/img/icons/theme/cooking/ladle.svg

<svg height="24" viewBox="0 0 24 24" width="24" xmlns="http://www.w3.org/2000/svg"><g fill="none" fill-rule="evenodd"><path d="m0 0h24v24h-24z" opacity="0"/><g fill="#000"><path d="m23.3743687 7.6109127c.3905243.3905243.3905243 1.02368927 0 1.41421357l-6.3639611 6.36396103c-.3905243.3905243-1.0236892.3905243-1.4142135 0l-1.4142136-1.4142136c-.3905243-.3905243-.3905243-1.0236892 0-1.4142135l6.363961-6.36396106c.3905243-.39052429 1.0236893-.39052429 1.4142136 0z" opacity=".3"/><path d="m9.23223305 18.9246212 3.53553395-3.5355339 1.4142135 1.4142136-3.5355339 3.5355339-.018737-.0187371c-2.19329978 1.7710945-5.71543123 1.3556366-8.11299097-1.0419231-2.39755975-2.3975598-2.49761075-5.6042844-.69151452-7.7625823z"/></g></g></svg>

<svg width="24px" height="24px" viewBox="0 0 24 24" version="1.1" xmlns="http://www.w3.org/2000/svg" xmlns:xlink="http://www.w3.org/1999/xlink">
    <title>Icon For Ladle</title>
    <g stroke="none" stroke-width="1" fill="none" fill-rule="evenodd">
        <rect opacity="0" x="0" y="0" width="24" height="24"></rect>
        <path d="M23.3743687,7.6109127 C23.764893,8.001437 23.764893,8.63460197 23.3743687,9.02512627 L17.0104076,15.3890873 C16.6198833,15.7796116 15.9867184,15.7796116 15.5961941,15.3890873 L14.1819805,13.9748737 C13.7914562,13.5843494 13.7914562,12.9511845 14.1819805,12.5606602 L20.5459415,6.19669914 C20.9364658,5.80617485 21.5696308,5.80617485 21.9601551,6.19669914 L23.3743687,7.6109127 Z" fill="#000000" opacity="0.3"></path>
        <path d="M9.23223305,18.9246212 L12.767767,15.3890873 L14.1819805,16.8033009 L10.6464466,20.3388348 L10.6277096,20.3200977 C8.43440982,22.0911922 4.91227837,21.6757343 2.51471863,19.2781746 C0.117158879,16.8806148 0.0171078758,13.6738902 1.82320411,11.5155923 L9.23223305,18.9246212 Z" fill="#000000"></path>
    </g>
</svg>
